X:145
T:Sl\"angpolska efter Byss-Calle
R:sl\"angpolska
A:Uppland
B:57 l{\aa}tar efter Byss-Calle nr 25
Z:id:hn-sp-145
M:3/4
L:1/16
K:G
d4 d^cde dcde | d3=c c2B2 B2g2 | gece edBd cBAG |
FGAB AGFE D2GB | d4 d^cde dcde | d3=c c2B2 B2g2 |
gece edBd cBAG | FGAF G8 :||: D2FA cBAG FGAF |
D2GB d2BG DGBG | D2FA cBAG FGAF | D2GB d2BG DGBd |
g3e e2c2 c4 | g3d d2B2 B2cd | e3d c2B2 A2FA | cAFA G8 :|

